main/static/icons/calendar.svg

<?xml version="1.0" encoding="UTF-8" standalone="no"?>
<svg
   xmlns:dc="http://purl.org/dc/elements/1.1/"
   xmlns:cc="http://creativecommons.org/ns#"
   xmlns:rdf="http://www.w3.org/1999/02/22-rdf-syntax-ns#"
   xmlns:svg="http://www.w3.org/2000/svg"
   xmlns="http://www.w3.org/2000/svg"
   xmlns:sodipodi="http://sodipodi.sourceforge.net/DTD/sodipodi-0.dtd"
   xmlns:inkscape="http://www.inkscape.org/namespaces/inkscape"
   version="1.1"
   x="0px"
   y="0px"
   viewBox="0 0 528 528"
   enable-background="new 0 0 512 512"
   xml:space="preserve"
   id="svg2"
   inkscape:version="0.91 r"
   sodipodi:docname="calendar.svg"
   width="528"
   height="528"
   inkscape:export-filename="/home/tobias/git/mtn-huts/main/static/icons/calendar.png"
   inkscape:export-xdpi="16.360001"
   inkscape:export-ydpi="16.360001"><metadata
     id="metadata18"><rdf:RDF><cc:Work
         rdf:about=""><dc:format>image/svg+xml</dc:format><dc:type
           rdf:resource="http://purl.org/dc/dcmitype/StillImage" /><dc:title></dc:title></cc:Work></rdf:RDF></metadata><defs
     id="defs16" /><sodipodi:namedview
     pagecolor="#ffffff"
     bordercolor="#666666"
     borderopacity="1"
     objecttolerance="10"
     gridtolerance="10"
     guidetolerance="10"
     inkscape:pageopacity="0"
     inkscape:pageshadow="2"
     inkscape:window-width="1600"
     inkscape:window-height="848"
     id="namedview14"
     showgrid="false"
     fit-margin-top="10"
     fit-margin-left="10"
     fit-margin-right="10"
     fit-margin-bottom="10"
     inkscape:zoom="0.52149125"
     inkscape:cx="153.6275"
     inkscape:cy="17.093655"
     inkscape:window-x="0"
     inkscape:window-y="0"
     inkscape:window-maximized="1"
     inkscape:current-layer="svg2" /><g
     id="g4"
     style="fill:#0b5f88;fill-opacity:1"
     transform="translate(8,8)"><path
       d="m 484.6,52.8 -50.8,0 0,-40.6 C 433.8,6.6 429.3,2 423.6,2 L 393.1,2 C 387.5,2 383,6.5 383,12.2 l 0,40.6 -50.8,0 0,-40.6 C 332.2,6.6 327.7,2 322,2 l -30.5,0 c -5.6,0 -10.2,4.6 -10.2,10.2 l 0,40.6 -50.8,0 0,-40.6 C 230.5,6.6 226,2 220.3,2 L 190,2 c -5.6,0 -10.2,4.6 -10.2,10.2 l 0,40.6 -50.8,0 0,-40.6 C 129,6.5 124.5,2 118.8,2 L 88.4,2 C 82.8,2 78.2,6.5 78.2,12.2 l 0,40.6 -50.8,0 C 13.4,52.8 2,64.2 2,78.2 l 0,406.4 c 0,14 11.4,25.4 25.4,25.4 l 457.2,0 c 14,0 25.4,-11.4 25.4,-25.4 l 0,-406.4 c 0,-14 -11.4,-25.4 -25.4,-25.4 z M 459.2,449 c 0,5.6 -4.5,10.2 -10.2,10.2 l -386,0 c -5.6,0 -10.2,-4.6 -10.2,-10.2 l 0,-284.4 c 0,-5.6 4.5,-10.2 10.2,-10.2 l 386,0 c 5.6,0 10.2,4.6 10.2,10.2 l 0,284.4 z"
       id="path6"
       style="fill:#0b5f88;fill-opacity:1"
       inkscape:connector-curvature="0" /><path
       d="m 299.4,212.6 c -9.9,-9.9 -26,-9.9 -35.9,0 -9.9,9.9 -9.9,26 0,35.9 l 32.8,32.8 -141.9,0 c -14,0 -25.4,11.4 -25.4,25.4 0,14 11.4,25.4 25.4,25.4 l 141.9,0 -32.9,32.9 c -9.9,9.9 -9.9,26 0,35.9 9.7,9.7 28.8,7.1 35.9,0 l 76.2,-76.2 c 4.8,-4.8 7.4,-11.2 7.4,-18 0,-6.7 -2.7,-13.2 -7.4,-18 l -76.1,-76.1 z"
       id="path8"
       style="fill:#0b5f88;fill-opacity:1"
       inkscape:connector-curvature="0" /></g></svg>

<svg xmlns="http://www.w3.org/2000/svg" xmlns:xlink="http://www.w3.org/1999/xlink" version="1.1" x="0px" y="0px" viewBox="0 0 512 640" enable-background="new 0 0 512 512" xml:space="preserve"><g><path d="M484.6,52.8h-50.8V12.2c0-5.6-4.5-10.2-10.2-10.2h-30.5C387.5,2,383,6.5,383,12.2v40.6h-50.8V12.2C332.2,6.6,327.7,2,322,2   h-30.5c-5.6,0-10.2,4.6-10.2,10.2v40.6h-50.8V12.2c0-5.6-4.5-10.2-10.2-10.2H190c-5.6,0-10.2,4.6-10.2,10.2v40.6H129V12.2   C129,6.5,124.5,2,118.8,2H88.4c-5.6,0-10.2,4.5-10.2,10.2v40.6H27.4C13.4,52.8,2,64.2,2,78.2v406.4c0,14,11.4,25.4,25.4,25.4h457.2   c14,0,25.4-11.4,25.4-25.4V78.2C510,64.2,498.6,52.8,484.6,52.8z M459.2,449c0,5.6-4.5,10.2-10.2,10.2H63   c-5.6,0-10.2-4.6-10.2-10.2V164.6c0-5.6,4.5-10.2,10.2-10.2H449c5.6,0,10.2,4.6,10.2,10.2V449z"/><path d="M299.4,212.6c-9.9-9.9-26-9.9-35.9,0c-9.9,9.9-9.9,26,0,35.9l32.8,32.8H154.4c-14,0-25.4,11.4-25.4,25.4   c0,14,11.4,25.4,25.4,25.4h141.9L263.4,365c-9.9,9.9-9.9,26,0,35.9c9.7,9.7,28.8,7.1,35.9,0l76.2-76.2c4.8-4.8,7.4-11.2,7.4-18   c0-6.7-2.7-13.2-7.4-18L299.4,212.6z"/></g><text x="0" y="527" fill="#000000" font-size="5px" font-weight="bold" font-family="'Helvetica Neue', Helvetica, Arial-Unicode, Arial, Sans-serif">Created by Icon Fair</text><text x="0" y="532" fill="#000000" font-size="5px" font-weight="bold" font-family="'Helvetica Neue', Helvetica, Arial-Unicode, Arial, Sans-serif">from the Noun Project</text></svg>
